X: 6
T: The Little Diamond
R: polka
M: 2/4
L: 1/8
K: Dmaj
| A>B A>F | D>F A>d | A>B A>F | G>F EF/E/ |
D>E F>G | A>B c>d | e>d c>e | d2 d2 :||
|e| f>d g>e | f>d c>B | A>d c>d | f>e ed/e/ |
f>d g>e | f>d c>B | A>g e>c | d2 de:||


Tune 604	Setting 13620

